assets/sonr-icons/target.svg

<svg xmlns="http://www.w3.org/2000/svg" width="24" height="24" fill="none"><path fill="currentColor" d="M21 11h-1.07c-.472-3.622-3.308-6.457-6.889-6.925l-.04-.005V3a1 1 0 0 0-2 0v1.07c-3.622.473-6.457 3.308-6.926 6.889l-.005.04H3a1 1 0 0 0 0 2h1.07c.473 3.622 3.308 6.457 6.89 6.925l.04.005v1.07a1 1 0 0 0 2 0v-1.07c3.622-.472 6.457-3.308 6.925-6.889l.005-.04H21a1 1 0 0 0 0-2m-9 7a6 6 0 0 1 0-12 6 6 0 0 1 0 12m0-9a3 3 0 1 0 0 6 3 3 0 0 0 0-6m0 4a1 1 0 1 1 0-2 1 1 0 0 1 0 2"/></svg>

<svg xmlns="http://www.w3.org/2000/svg" width="24" height="24" fill="none" viewBox="0 0 24 24"><path fill="#000" d="M21 11H19.93C19.458 7.378 16.622 4.543 13.041 4.075L13.001 4.07V3C13.001 2.448 12.553 2 12.001 2C11.449 2 11.001 2.448 11.001 3V4.07C7.379 4.543 4.544 7.378 4.075 10.959L4.07 10.999H3C2.448 10.999 2 11.447 2 11.999C2 12.551 2.448 12.999 3 12.999H4.07C4.543 16.621 7.378 19.456 10.96 19.924L11 19.929V20.999C11 21.551 11.448 21.999 12 21.999C12.552 21.999 13 21.551 13 20.999V19.929C16.622 19.457 19.457 16.621 19.925 13.04L19.93 13H21C21.552 13 22 12.552 22 12C22 11.448 21.552 11 21 11ZM12 18C8.687 18 6 15.313 6 12C6 8.687 8.687 6 12 6C15.313 6 18 8.687 18 12C18 15.313 15.313 18 12 18ZM12 9C10.343 9 9 10.343 9 12C9 13.657 10.343 15 12 15C13.657 15 15 13.657 15 12C15 10.343 13.657 9 12 9ZM12 13C11.448 13 11 12.552 11 12C11 11.448 11.448 11 12 11C12.552 11 13 11.448 13 12C13 12.552 12.552 13 12 13Z"/></svg>
